resources/src/mediawiki.widgets/images/page-existing-ltr.svg

<?xml version="1.0" encoding="UTF-8"?>
<svg xmlns="http://www.w3.org/2000/svg" width="24" height="24" viewBox="0 0 24 24">
	<path d="M12 12h5V5h-5zm-5 3v1h10v-1m0-1v-1H7v1m0 4h10v-1H7zm4-11H7v1h4zm0 3V9H7v1m0 1v1h4v-1m0-6H7v1h4zM5 3h14v18H8.692C6.602 21 5 19.373 5 17.25z"/>
</svg>

<?xml version="1.0" encoding="UTF-8"?>
<svg xmlns="http://www.w3.org/2000/svg" width="24" height="24" viewBox="0 0 24 24">
    <path d="m 12,12 5,0 0,-7 -5,0 z m -5,3 0,1 10,0 0,-1 m 0,-1 0,-1 -10,0 0,1 m 0,4 10,0 0,-1 -10,0 z M 11,7 7,7 7,8 11,8 z m 0,3 0,-1 -4,0 0,1 m 0,1 0,1 4,0 0,-1 M 11,5 7,5 7,6 11,6 z M 5,3 19,3 19,21 8.692,21 C 6.602,21 5,19.373 5,17.25 z"/>
</svg>
